apps/www/public/images/launchweek/seven/day1/self-hosted-logs-001-7-mobile.svg

<svg xmlns="http://www.w3.org/2000/svg" width="533" height="400" fill="none" viewBox="0 0 533 400"><g clip-path="url(#a)" filter="url(#b)"><rect width="701" height="38" x="47" y="191" fill="url(#c)" fill-opacity=".5" rx="8"/><path stroke="#94794f" stroke-linecap="round" stroke-linejoin="round" stroke-width="1.627" d="m69.18 203.383-6.892 11.506a1.627 1.627 0 0 0 1.392 2.441h13.784a1.627 1.627 0 0 0 1.392-2.441l-6.892-11.506a1.627 1.627 0 0 0-2.783 0M70.563 207.564v3.255M70.563 214.076h.008"/><g filter="url(#d)"><rect width="46.275" height="26.51" x="89.285" y="196.75" fill="#433218" fill-opacity=".4" rx="6.51"/><path fill="#94794f" d="M103.376 216.005h1.262v-2.961h1.601v-1.067h-1.601V209h-1.262v2.977h-3.85l3.85-6.65h-1.391l-3.932 6.828v.889h5.323zm8.6.194c2.297 0 3.705-2.022 3.705-5.565 0-3.576-1.408-5.501-3.705-5.501s-3.705 1.925-3.705 5.501c0 3.543 1.408 5.565 3.705 5.565m0-1.068c-1.44 0-2.459-1.423-2.459-4.497 0-3.09 1.019-4.433 2.459-4.433s2.459 1.343 2.459 4.433c0 3.074-1.019 4.497-2.459 4.497m0-3.51c.534 0 1.003-.405 1.003-1.1s-.469-1.101-1.003-1.101-1.003.405-1.003 1.101c0 .695.469 1.1 1.003 1.1m10.801 4.384h1.262v-2.961h1.601v-1.067h-1.601V209h-1.262v2.977h-3.851l3.851-6.65h-1.392l-3.931 6.828v.889h5.323z"/><rect width="45.461" height="25.696" x="89.692" y="197.157" stroke="#94794f" stroke-width=".814" rx="6.103"/></g><path fill="#fff" fill-opacity=".7" d="M146.146 216.005h7.176v-1.135h-2.787v-9.879h-1.018c-.668.35-1.485.634-2.62.801v.884h2.27v8.194h-3.021zm9.589 0h7.493v-1.185h-3.504c-.634 0-1.335.05-1.986.1 2.904-2.77 4.906-4.823 4.906-6.892 0-1.953-1.335-3.238-3.471-3.238-1.502 0-2.553.668-3.505 1.669l.785.785c.684-.751 1.552-1.336 2.553-1.336 1.569 0 2.32.918 2.32 2.17 0 1.852-1.986 3.788-5.591 7.109zm13.795-5.774c.751 0 1.352-.568 1.352-1.419 0-.834-.601-1.402-1.352-1.402s-1.352.568-1.352 1.402c0 .851.601 1.419 1.352 1.419m0 5.974c.751 0 1.352-.567 1.352-1.402 0-.851-.601-1.418-1.352-1.418s-1.352.567-1.352 1.418c0 .835.601 1.402 1.352 1.402m11.141-.2h1.302v-3.054h1.652v-1.101h-1.652v-3.071h-1.302v3.071h-3.972l3.972-6.859h-1.435l-4.055 7.042v.918h5.49zm7.637 0h1.435c.15-4.322.851-6.826 3.671-10.163v-.851h-7.71v1.184h6.142c-2.437 3.105-3.355 5.624-3.538 9.83m11.241-5.774c.751 0 1.352-.568 1.352-1.419 0-.834-.601-1.402-1.352-1.402s-1.352.568-1.352 1.402c0 .851.601 1.419 1.352 1.419m0 5.974c.751 0 1.352-.567 1.352-1.402 0-.851-.601-1.418-1.352-1.418s-1.352.567-1.352 1.418c0 .835.601 1.402 1.352 1.402m10.007 0c2.369 0 3.821-2.086 3.821-5.741 0-3.688-1.452-5.674-3.821-5.674s-3.822 1.986-3.822 5.674c0 3.655 1.452 5.741 3.822 5.741m-2.253-3.221c-.184-.667-.284-1.518-.284-2.52 0-3.187 1.051-4.572 2.537-4.572.684 0 1.285.3 1.718.951zm2.253 2.12c-.735 0-1.352-.351-1.803-1.085l4.005-6.191c.217.684.334 1.568.334 2.636 0 3.171-1.051 4.64-2.536 4.64m8.771.901h1.435c.15-4.322.851-6.826 3.672-10.163v-.851h-7.71v1.184h6.141c-2.436 3.105-3.354 5.624-3.538 9.83"/><path stroke="#bfbfbf" stroke-width="1.156" d="M234.461 201.085v17.84"/><path fill="#fff" fill-opacity=".7" d="M248.085 219.793c2.403 0 3.788-1.318 3.788-3.788v-8.511h-1.101l-.117.951h-.05c-.718-.717-1.535-1.151-2.487-1.151-1.969 0-3.704 1.668-3.704 4.339 0 2.686 1.418 4.288 3.504 4.288 1.001 0 2.003-.567 2.637-1.268l-.017 1.352c-.016 1.986-.901 2.687-2.453 2.687-.818 0-1.752-.234-2.587-1.302l-.667.834c1.051 1.252 2.203 1.569 3.254 1.569m.134-5.006c-1.486 0-2.404-1.235-2.404-3.171 0-1.853 1.169-3.171 2.537-3.171.718 0 1.419.284 2.153 1.018v4.022c-.734.851-1.502 1.302-2.286 1.302m10.707 1.435c1.302 0 2.32-.467 3.121-1.001l-.484-.918c-.751.5-1.519.801-2.47.801-1.769 0-3.037-1.185-3.104-3.021h6.341a6 6 0 0 0 .05-.801c0-2.403-1.368-3.988-3.688-3.988-2.102 0-4.122 1.702-4.122 4.472 0 2.787 1.953 4.456 4.356 4.456m-2.954-5.14c.217-1.702 1.419-2.704 2.737-2.704 1.502 0 2.403.968 2.403 2.704zm14.012 5.14c.884 0 1.819-.234 2.553-.518l-.3-1.001a5 5 0 0 1-1.953.384c-1.569 0-2.053-.818-2.053-2.353v-4.122h3.989v-1.118h-3.989v-3.338l-1.318.835v2.503h-2.336v1.118h2.286v4.105c0 2.086.768 3.505 3.121 3.505"/><path stroke="#bfbfbf" stroke-width="1.156" d="M283.364 201.085v17.84"/><path fill="#fff" fill-opacity=".7" d="M293.132 216.706h1.235l7.143-12.55h-1.235zm13.711-.484c1.002 0 1.97-.634 2.637-1.352h.05l.117 1.135h1.135v-12.132h-1.369v2.937l.05 1.602c-.751-.701-1.468-1.118-2.453-1.118-1.919 0-3.688 1.719-3.688 4.472 0 2.837 1.402 4.456 3.521 4.456m.284-1.152c-1.502 0-2.386-1.268-2.386-3.321 0-1.952 1.134-3.304 2.536-3.304.701 0 1.402.284 2.136 1.018v4.289c-.717.868-1.485 1.318-2.286 1.318m10.207 1.152c2.136 0 4.005-1.636 4.005-4.456 0-2.854-1.869-4.472-4.005-4.472s-4.005 1.618-4.005 4.472c0 2.82 1.869 4.456 4.005 4.456m0-1.135c-1.552 0-2.587-1.335-2.587-3.321s1.035-3.338 2.587-3.338 2.586 1.352 2.586 3.338-1.034 3.321-2.586 3.321m10.774 1.135c1.201 0 2.336-.501 3.221-1.335l-.601-.885c-.684.601-1.519 1.085-2.52 1.085-1.869 0-3.121-1.335-3.121-3.321s1.285-3.338 3.154-3.338c.852 0 1.552.368 2.22 1.002l.684-.885c-.667-.684-1.635-1.251-2.954-1.251-2.453 0-4.522 1.618-4.522 4.472 0 2.82 1.902 4.456 4.439 4.456m9.406 0c2.319 0 3.604-1.152 3.604-2.537 0-1.285-1.051-1.952-3.237-2.536-1.469-.384-2.47-.818-2.47-1.519 0-.684.484-1.268 2.002-1.268 1.002 0 1.87.367 2.587.901l.668-.901c-.801-.568-2.036-1.068-3.255-1.068-2.236 0-3.404 1.051-3.404 2.403 0 1.185 1.419 1.969 3.087 2.403 1.986.517 2.637 1.001 2.637 1.669 0 .767-.717 1.368-2.169 1.368s-2.454-.45-3.355-1.151l-.667.901c.984.717 2.386 1.335 3.972 1.335m5.65.484h1.235l7.143-12.55h-1.235zm13.228-.701h1.351v-7.393h3.405v-1.118h-3.405v-.434c0-1.402.601-2.27 2.053-2.27.701 0 1.218.084 1.886.418l.317-1.035a5.5 5.5 0 0 0-2.336-.501c-2.237 0-3.271 1.352-3.271 3.438v.384l-2.32.1v1.018h2.32zm10.073.217c1.151 0 2.303-.651 3.204-1.385h.05l.117 1.168h1.118v-5.24c0-2.086-1.068-3.471-3.288-3.471-1.418 0-2.62.667-3.271 1.218l.534.951c.585-.501 1.452-1.035 2.504-1.035 1.568 0 2.119 1.018 2.153 2.187-4.189.367-5.875 1.285-5.875 3.204 0 1.518 1.235 2.403 2.754 2.403m.367-1.102c-.935 0-1.786-.417-1.786-1.401 0-1.152 1.068-1.886 4.54-2.187v2.287c-.918.834-1.836 1.301-2.754 1.301m9.806.885h1.535l3.355-8.511h-1.319l-1.869 4.89c-.333.851-.6 1.702-.884 2.486h-.067c-.284-.784-.584-1.635-.918-2.486l-1.869-4.89h-1.385zm11.075-10.414c.65 0 1.168-.467 1.168-1.151 0-.701-.518-1.185-1.168-1.185-.651 0-1.169.484-1.169 1.185 0 .684.518 1.151 1.169 1.151m-3.672 10.414h7.677v-1.135h-3.154v-7.376h-4.523v1.118h3.154v6.258h-3.154zm14.112.217c1.202 0 2.336-.501 3.221-1.335l-.601-.885c-.684.601-1.519 1.085-2.52 1.085-1.869 0-3.121-1.335-3.121-3.321s1.285-3.338 3.154-3.338c.852 0 1.552.368 2.22 1.002l.684-.885c-.667-.684-1.635-1.251-2.954-1.251-2.453 0-4.522 1.618-4.522 4.472 0 2.82 1.902 4.456 4.439 4.456m9.239 0c2.136 0 4.005-1.636 4.005-4.456 0-2.854-1.869-4.472-4.005-4.472s-4.005 1.618-4.005 4.472c0 2.82 1.869 4.456 4.005 4.456m0-1.135c-1.552 0-2.587-1.335-2.587-3.321s1.035-3.338 2.587-3.338 2.586 1.352 2.586 3.338-1.034 3.321-2.586 3.321m6.552.918h1.368v-5.941c.951-1.068 1.602-1.586 2.57-1.586 1.335 0 1.869.785 1.869 2.42v5.107h1.369v-5.29c0-2.237-.885-3.421-2.804-3.421-1.268 0-2.203.717-3.054 1.685h-.067l-.116-1.485h-1.135zm13.461.2c.751 0 1.351-.567 1.351-1.402 0-.851-.6-1.418-1.351-1.418s-1.352.567-1.352 1.418c0 .835.601 1.402 1.352 1.402m10.34-10.614c.651 0 1.168-.467 1.168-1.151 0-.701-.517-1.185-1.168-1.185s-1.168.484-1.168 1.185c0 .684.517 1.151 1.168 1.151m-3.672 10.414h7.677v-1.135h-3.154v-7.376h-4.523v1.118h3.154v6.258h-3.154zm14.112.217c1.202 0 2.336-.501 3.221-1.335l-.601-.885c-.684.601-1.518 1.085-2.52 1.085-1.869 0-3.12-1.335-3.12-3.321s1.285-3.338 3.154-3.338c.851 0 1.552.368 2.219 1.002l.684-.885c-.667-.684-1.635-1.251-2.953-1.251-2.454 0-4.523 1.618-4.523 4.472 0 2.82 1.903 4.456 4.439 4.456m9.239 0c2.136 0 4.005-1.636 4.005-4.456 0-2.854-1.869-4.472-4.005-4.472s-4.005 1.618-4.005 4.472c0 2.82 1.869 4.456 4.005 4.456m0-1.135c-1.552 0-2.587-1.335-2.587-3.321s1.035-3.338 2.587-3.338 2.587 1.352 2.587 3.338-1.035 3.321-2.587 3.321"/><rect width="699.808" height="36.808" x="47.596" y="191.596" stroke="url(#e)" stroke-width="1.192" rx="7.404"/></g><defs><linearGradient id="c" x1="406.16" x2="428.196" y1="154.211" y2="267.251" gradientUnits="userSpaceOnUse"><stop stop-color="#bb93c5" stop-opacity="0"/><stop offset=".198" stop-color="#bb93c5" stop-opacity=".19"/><stop offset="1" stop-color="#302642"/></linearGradient><linearGradient id="e" x1="627.95" x2="640.302" y1="229" y2="183.299" gradientUnits="userSpaceOnUse"><stop stop-color="#d478ff" stop-opacity=".05"/><stop offset="1" stop-color="#d782ff" stop-opacity=".74"/></linearGradient><filter id="b" width="720.072" height="57.072" x="37.464" y="181.464" color-interpolation-filters="sRGB" filterUnits="userSpaceOnUse"><feFlood flood-opacity="0" result="BackgroundImageFix"/><feGaussianBlur in="BackgroundImageFix" stdDeviation="4.768"/><feComposite in2="SourceAlpha" operator="in" result="effect1_backgroundBlur_19_7555"/><feBlend in="SourceGraphic" in2="effect1_backgroundBlur_19_7555" result="shape"/></filter><filter id="d" width="132.782" height="113.017" x="46.031" y="153.496" color-interpolation-filters="sRGB" filterUnits="userSpaceOnUse"><feFlood flood-opacity="0" result="BackgroundImageFix"/><feGaussianBlur in="BackgroundImageFix" stdDeviation="21.627"/><feComposite in2="SourceAlpha" operator="in" result="effect1_backgroundBlur_19_7555"/><feBlend in="SourceGraphic" in2="effect1_backgroundBlur_19_7555" result="shape"/></filter><clipPath id="a"><path fill="#fff" d="M0 0h533v400H0z"/></clipPath></defs></svg>

<svg width="533" height="400" viewBox="0 0 533 400" fill="none" xmlns="http://www.w3.org/2000/svg">
<g clip-path="url(#clip0_19_7555)">
<g filter="url(#filter0_b_19_7555)">
<rect x="47" y="191" width="701" height="38" rx="8" fill="url(#paint0_linear_19_7555)" fill-opacity="0.5"/>
<path d="M69.1807 203.383L62.2884 214.889C62.1463 215.135 62.0711 215.414 62.0703 215.698C62.0695 215.982 62.1431 216.262 62.2839 216.509C62.4246 216.756 62.6275 216.961 62.8724 217.106C63.1173 217.25 63.3957 217.327 63.6799 217.33H77.4644C77.7485 217.327 78.0269 217.25 78.2718 217.106C78.5167 216.961 78.7196 216.756 78.8604 216.509C79.0011 216.262 79.0747 215.982 79.0739 215.698C79.0731 215.414 78.9979 215.135 78.8558 214.889L71.9636 203.383C71.8185 203.144 71.6143 202.946 71.3705 202.809C71.1268 202.672 70.8518 202.6 70.5721 202.6C70.2924 202.6 70.0174 202.672 69.7737 202.809C69.53 202.946 69.3257 203.144 69.1807 203.383V203.383Z" stroke="#94794F" stroke-width="1.62745" stroke-linecap="round" stroke-linejoin="round"/>
<path d="M70.5625 207.564V210.819" stroke="#94794F" stroke-width="1.62745" stroke-linecap="round" stroke-linejoin="round"/>
<path d="M70.5625 214.076H70.5706" stroke="#94794F" stroke-width="1.62745" stroke-linecap="round" stroke-linejoin="round"/>
<g filter="url(#filter1_b_19_7555)">
<rect x="89.2852" y="196.75" width="46.2745" height="26.5098" rx="6.5098" fill="#433218" fill-opacity="0.4"/>
<path d="M103.376 216.005H104.638V213.044H106.239V211.977H104.638V209H103.376V211.977H99.5255L103.376 205.327H101.985L98.0533 212.155V213.044H103.376V216.005ZM111.976 216.199C114.273 216.199 115.681 214.177 115.681 210.634C115.681 207.058 114.273 205.133 111.976 205.133C109.679 205.133 108.271 207.058 108.271 210.634C108.271 214.177 109.679 216.199 111.976 216.199ZM111.976 215.131C110.536 215.131 109.517 213.708 109.517 210.634C109.517 207.544 110.536 206.201 111.976 206.201C113.416 206.201 114.435 207.544 114.435 210.634C114.435 213.708 113.416 215.131 111.976 215.131ZM111.976 211.621C112.51 211.621 112.979 211.216 112.979 210.521C112.979 209.825 112.51 209.42 111.976 209.42C111.442 209.42 110.973 209.825 110.973 210.521C110.973 211.216 111.442 211.621 111.976 211.621ZM122.777 216.005H124.039V213.044H125.64V211.977H124.039V209H122.777V211.977H118.926L122.777 205.327H121.385L117.454 212.155V213.044H122.777V216.005Z" fill="#94794F"/>
<rect x="89.692" y="197.157" width="45.4608" height="25.6961" rx="6.10293" stroke="#94794F" stroke-width="0.813724"/>
</g>
<path d="M146.146 216.005H153.322V214.87H150.535V204.991H149.517C148.849 205.341 148.032 205.625 146.897 205.792V206.676H149.167V214.87H146.146V216.005ZM155.735 216.005H163.228V214.82H159.724C159.09 214.82 158.389 214.87 157.738 214.92C160.642 212.15 162.644 210.097 162.644 208.028C162.644 206.075 161.309 204.79 159.173 204.79C157.671 204.79 156.62 205.458 155.668 206.459L156.453 207.244C157.137 206.493 158.005 205.908 159.006 205.908C160.575 205.908 161.326 206.826 161.326 208.078C161.326 209.93 159.34 211.866 155.735 215.187V216.005ZM169.53 210.231C170.281 210.231 170.882 209.663 170.882 208.812C170.882 207.978 170.281 207.41 169.53 207.41C168.779 207.41 168.178 207.978 168.178 208.812C168.178 209.663 168.779 210.231 169.53 210.231ZM169.53 216.205C170.281 216.205 170.882 215.638 170.882 214.803C170.882 213.952 170.281 213.385 169.53 213.385C168.779 213.385 168.178 213.952 168.178 214.803C168.178 215.638 168.779 216.205 169.53 216.205ZM180.671 216.005H181.973V212.951H183.625V211.85H181.973V208.779H180.671V211.85H176.699L180.671 204.991H179.236L175.181 212.033V212.951H180.671V216.005ZM188.308 216.005H189.743C189.893 211.683 190.594 209.179 193.414 205.842V204.991H185.704V206.175H191.846C189.409 209.28 188.491 211.799 188.308 216.005ZM199.549 210.231C200.3 210.231 200.901 209.663 200.901 208.812C200.901 207.978 200.3 207.41 199.549 207.41C198.798 207.41 198.197 207.978 198.197 208.812C198.197 209.663 198.798 210.231 199.549 210.231ZM199.549 216.205C200.3 216.205 200.901 215.638 200.901 214.803C200.901 213.952 200.3 213.385 199.549 213.385C198.798 213.385 198.197 213.952 198.197 214.803C198.197 215.638 198.798 216.205 199.549 216.205ZM209.556 216.205C211.925 216.205 213.377 214.119 213.377 210.464C213.377 206.776 211.925 204.79 209.556 204.79C207.186 204.79 205.734 206.776 205.734 210.464C205.734 214.119 207.186 216.205 209.556 216.205ZM207.303 212.984C207.119 212.317 207.019 211.466 207.019 210.464C207.019 207.277 208.07 205.892 209.556 205.892C210.24 205.892 210.841 206.192 211.274 206.843L207.303 212.984ZM209.556 215.104C208.821 215.104 208.204 214.753 207.753 214.019L211.758 207.828C211.975 208.512 212.092 209.396 212.092 210.464C212.092 213.635 211.041 215.104 209.556 215.104ZM218.327 216.005H219.762C219.912 211.683 220.613 209.179 223.434 205.842V204.991H215.724V206.175H221.865C219.429 209.28 218.511 211.799 218.327 216.005Z" fill="white" fill-opacity="0.7"/>
<path d="M234.461 201.085L234.461 218.925" stroke="#BFBFBF" stroke-width="1.15557"/>
<path d="M248.085 219.793C250.488 219.793 251.873 218.475 251.873 216.005V207.494H250.772L250.655 208.445H250.605C249.887 207.728 249.07 207.294 248.118 207.294C246.149 207.294 244.414 208.962 244.414 211.633C244.414 214.319 245.832 215.921 247.918 215.921C248.919 215.921 249.921 215.354 250.555 214.653L250.538 216.005C250.522 217.991 249.637 218.692 248.085 218.692C247.267 218.692 246.333 218.458 245.498 217.39L244.831 218.224C245.882 219.476 247.034 219.793 248.085 219.793ZM248.219 214.787C246.733 214.787 245.815 213.552 245.815 211.616C245.815 209.763 246.984 208.445 248.352 208.445C249.07 208.445 249.771 208.729 250.505 209.463V213.485C249.771 214.336 249.003 214.787 248.219 214.787ZM258.926 216.222C260.228 216.222 261.246 215.755 262.047 215.221L261.563 214.303C260.812 214.803 260.044 215.104 259.093 215.104C257.324 215.104 256.056 213.919 255.989 212.083H262.33C262.364 211.866 262.38 211.566 262.38 211.282C262.38 208.879 261.012 207.294 258.692 207.294C256.59 207.294 254.57 208.996 254.57 211.766C254.57 214.553 256.523 216.222 258.926 216.222ZM255.972 211.082C256.189 209.38 257.391 208.378 258.709 208.378C260.211 208.378 261.112 209.346 261.112 211.082H255.972ZM269.984 216.222C270.868 216.222 271.803 215.988 272.537 215.704L272.237 214.703C271.669 214.937 271.052 215.087 270.284 215.087C268.715 215.087 268.231 214.269 268.231 212.734V208.612H272.22V207.494H268.231V204.156L266.913 204.991V207.494H264.577V208.612H266.863V212.717C266.863 214.803 267.631 216.222 269.984 216.222Z" fill="white" fill-opacity="0.7"/>
<path d="M283.364 201.085L283.364 218.925" stroke="#BFBFBF" stroke-width="1.15557"/>
<path d="M293.132 216.706H294.367L301.51 204.156H300.275L293.132 216.706ZM306.843 216.222C307.845 216.222 308.813 215.588 309.48 214.87H309.53L309.647 216.005H310.782V203.873H309.413V206.81L309.463 208.412C308.712 207.711 307.995 207.294 307.01 207.294C305.091 207.294 303.322 209.013 303.322 211.766C303.322 214.603 304.724 216.222 306.843 216.222ZM307.127 215.07C305.625 215.07 304.741 213.802 304.741 211.749C304.741 209.797 305.875 208.445 307.277 208.445C307.978 208.445 308.679 208.729 309.413 209.463V213.752C308.696 214.62 307.928 215.07 307.127 215.07ZM317.334 216.222C319.47 216.222 321.339 214.586 321.339 211.766C321.339 208.912 319.47 207.294 317.334 207.294C315.198 207.294 313.329 208.912 313.329 211.766C313.329 214.586 315.198 216.222 317.334 216.222ZM317.334 215.087C315.782 215.087 314.747 213.752 314.747 211.766C314.747 209.78 315.782 208.428 317.334 208.428C318.886 208.428 319.92 209.78 319.92 211.766C319.92 213.752 318.886 215.087 317.334 215.087ZM328.108 216.222C329.309 216.222 330.444 215.721 331.329 214.887L330.728 214.002C330.044 214.603 329.209 215.087 328.208 215.087C326.339 215.087 325.087 213.752 325.087 211.766C325.087 209.78 326.372 208.428 328.241 208.428C329.093 208.428 329.793 208.796 330.461 209.43L331.145 208.545C330.478 207.861 329.51 207.294 328.191 207.294C325.738 207.294 323.669 208.912 323.669 211.766C323.669 214.586 325.571 216.222 328.108 216.222ZM337.514 216.222C339.833 216.222 341.118 215.07 341.118 213.685C341.118 212.4 340.067 211.733 337.881 211.149C336.412 210.765 335.411 210.331 335.411 209.63C335.411 208.946 335.895 208.362 337.413 208.362C338.415 208.362 339.283 208.729 340 209.263L340.668 208.362C339.867 207.794 338.632 207.294 337.413 207.294C335.177 207.294 334.009 208.345 334.009 209.697C334.009 210.882 335.428 211.666 337.096 212.1C339.082 212.617 339.733 213.101 339.733 213.769C339.733 214.536 339.016 215.137 337.564 215.137C336.112 215.137 335.11 214.687 334.209 213.986L333.542 214.887C334.526 215.604 335.928 216.222 337.514 216.222ZM343.164 216.706H344.399L351.542 204.156H350.307L343.164 216.706ZM356.392 216.005H357.743V208.612H361.148V207.494H357.743V207.06C357.743 205.658 358.344 204.79 359.796 204.79C360.497 204.79 361.014 204.874 361.682 205.208L361.999 204.173C361.231 203.822 360.464 203.672 359.663 203.672C357.426 203.672 356.392 205.024 356.392 207.11V207.494L354.072 207.594V208.612H356.392V216.005ZM366.465 216.222C367.616 216.222 368.768 215.571 369.669 214.837H369.719L369.836 216.005H370.954V210.765C370.954 208.679 369.886 207.294 367.666 207.294C366.248 207.294 365.046 207.961 364.395 208.512L364.929 209.463C365.514 208.962 366.381 208.428 367.433 208.428C369.001 208.428 369.552 209.446 369.586 210.615C365.397 210.982 363.711 211.9 363.711 213.819C363.711 215.337 364.946 216.222 366.465 216.222ZM366.832 215.12C365.897 215.12 365.046 214.703 365.046 213.719C365.046 212.567 366.114 211.833 369.586 211.532V213.819C368.668 214.653 367.75 215.12 366.832 215.12ZM376.638 216.005H378.173L381.528 207.494H380.209L378.34 212.384C378.007 213.235 377.74 214.086 377.456 214.87H377.389C377.105 214.086 376.805 213.235 376.471 212.384L374.602 207.494H373.217L376.638 216.005ZM387.713 205.591C388.363 205.591 388.881 205.124 388.881 204.44C388.881 203.739 388.363 203.255 387.713 203.255C387.062 203.255 386.544 203.739 386.544 204.44C386.544 205.124 387.062 205.591 387.713 205.591ZM384.041 216.005H391.718V214.87H388.564V207.494H384.041V208.612H387.195V214.87H384.041V216.005ZM398.153 216.222C399.355 216.222 400.489 215.721 401.374 214.887L400.773 214.002C400.089 214.603 399.254 215.087 398.253 215.087C396.384 215.087 395.132 213.752 395.132 211.766C395.132 209.78 396.417 208.428 398.286 208.428C399.138 208.428 399.838 208.796 400.506 209.43L401.19 208.545C400.523 207.861 399.555 207.294 398.236 207.294C395.783 207.294 393.714 208.912 393.714 211.766C393.714 214.586 395.616 216.222 398.153 216.222ZM407.392 216.222C409.528 216.222 411.397 214.586 411.397 211.766C411.397 208.912 409.528 207.294 407.392 207.294C405.256 207.294 403.387 208.912 403.387 211.766C403.387 214.586 405.256 216.222 407.392 216.222ZM407.392 215.087C405.84 215.087 404.805 213.752 404.805 211.766C404.805 209.78 405.84 208.428 407.392 208.428C408.944 208.428 409.978 209.78 409.978 211.766C409.978 213.752 408.944 215.087 407.392 215.087ZM413.944 216.005H415.312V210.064C416.263 208.996 416.914 208.478 417.882 208.478C419.217 208.478 419.751 209.263 419.751 210.898V216.005H421.12V210.715C421.12 208.478 420.235 207.294 418.316 207.294C417.048 207.294 416.113 208.011 415.262 208.979H415.195L415.079 207.494H413.944V216.005ZM427.405 216.205C428.156 216.205 428.756 215.638 428.756 214.803C428.756 213.952 428.156 213.385 427.405 213.385C426.654 213.385 426.053 213.952 426.053 214.803C426.053 215.638 426.654 216.205 427.405 216.205ZM437.745 205.591C438.396 205.591 438.913 205.124 438.913 204.44C438.913 203.739 438.396 203.255 437.745 203.255C437.094 203.255 436.577 203.739 436.577 204.44C436.577 205.124 437.094 205.591 437.745 205.591ZM434.073 216.005H441.75V214.87H438.596V207.494H434.073V208.612H437.227V214.87H434.073V216.005ZM448.185 216.222C449.387 216.222 450.521 215.721 451.406 214.887L450.805 214.002C450.121 214.603 449.287 215.087 448.285 215.087C446.416 215.087 445.165 213.752 445.165 211.766C445.165 209.78 446.45 208.428 448.319 208.428C449.17 208.428 449.871 208.796 450.538 209.43L451.222 208.545C450.555 207.861 449.587 207.294 448.269 207.294C445.815 207.294 443.746 208.912 443.746 211.766C443.746 214.586 445.649 216.222 448.185 216.222ZM457.424 216.222C459.56 216.222 461.429 214.586 461.429 211.766C461.429 208.912 459.56 207.294 457.424 207.294C455.288 207.294 453.419 208.912 453.419 211.766C453.419 214.586 455.288 216.222 457.424 216.222ZM457.424 215.087C455.872 215.087 454.837 213.752 454.837 211.766C454.837 209.78 455.872 208.428 457.424 208.428C458.976 208.428 460.011 209.78 460.011 211.766C460.011 213.752 458.976 215.087 457.424 215.087Z" fill="white" fill-opacity="0.7"/>
<rect x="47.596" y="191.596" width="699.808" height="36.808" rx="7.40399" stroke="url(#paint1_linear_19_7555)" stroke-width="1.19202"/>
</g>
</g>
<defs>
<filter id="filter0_b_19_7555" x="37.4639" y="181.464" width="720.072" height="57.0723" filterUnits="userSpaceOnUse" color-interpolation-filters="sRGB">
<feFlood flood-opacity="0" result="BackgroundImageFix"/>
<feGaussianBlur in="BackgroundImageFix" stdDeviation="4.76807"/>
<feComposite in2="SourceAlpha" operator="in" result="effect1_backgroundBlur_19_7555"/>
<feBlend mode="normal" in="SourceGraphic" in2="effect1_backgroundBlur_19_7555" result="shape"/>
</filter>
<filter id="filter1_b_19_7555" x="46.0313" y="153.496" width="132.782" height="113.017" filterUnits="userSpaceOnUse" color-interpolation-filters="sRGB">
<feFlood flood-opacity="0" result="BackgroundImageFix"/>
<feGaussianBlur in="BackgroundImageFix" stdDeviation="21.6269"/>
<feComposite in2="SourceAlpha" operator="in" result="effect1_backgroundBlur_19_7555"/>
<feBlend mode="normal" in="SourceGraphic" in2="effect1_backgroundBlur_19_7555" result="shape"/>
</filter>
<linearGradient id="paint0_linear_19_7555" x1="406.16" y1="154.211" x2="428.196" y2="267.251" gradientUnits="userSpaceOnUse">
<stop stop-color="#BB93C5" stop-opacity="0"/>
<stop offset="0.197872" stop-color="#BB93C5" stop-opacity="0.19"/>
<stop offset="1" stop-color="#302642"/>
</linearGradient>
<linearGradient id="paint1_linear_19_7555" x1="627.95" y1="229" x2="640.302" y2="183.299" gradientUnits="userSpaceOnUse">
<stop stop-color="#D478FF" stop-opacity="0.05"/>
<stop offset="1" stop-color="#D782FF" stop-opacity="0.74"/>
</linearGradient>
<clipPath id="clip0_19_7555">
<rect width="533" height="400" fill="white"/>
</clipPath>
</defs>
</svg>
